apps/site/public/icons/technologies/express.svg

<svg width="119" height="72" viewBox="0 0 119 72" fill="none" xmlns="http://www.w3.org/2000/svg">
    <path d="M2.94078 36.6041H59.7008C59.8768 31.9401 59.3928 27.4521 58.2488 23.1401C57.1928 18.8281 55.4328 15.0001 52.9688 11.6561C50.5928 8.31212 47.4688 5.62811 43.5968 3.60411C39.8128 1.58011 35.2808 0.568115 30.0008 0.568115C26.2168 0.568115 22.5208 1.36011 18.9128 2.94411C15.3048 4.52812 12.1368 6.86011 9.40878 9.94011C6.68078 12.9321 4.48078 16.6281 2.80878 21.0281C1.13678 25.4281 0.300781 30.4441 0.300781 36.0761C0.300781 41.0921 0.872781 45.8001 2.01678 50.2001C3.16078 54.5121 4.92078 58.2961 7.29678 61.5521C9.67278 64.7201 12.7088 67.1841 16.4048 68.9441C20.1888 70.7041 24.7208 71.5401 30.0008 71.4521C37.7448 71.4521 44.2568 69.2961 49.5368 64.9841C54.8168 60.5841 57.9408 54.4241 58.9088 46.5041H56.2688C55.1248 53.9841 52.1768 59.6161 47.4248 63.4001C42.7608 67.0961 36.8648 68.9441 29.7368 68.9441C24.8968 68.9441 20.8048 68.1081 17.4608 66.4361C14.1168 64.7641 11.3888 62.4761 9.27678 59.5721C7.16478 56.6681 5.58078 53.2801 4.52478 49.4081C3.55678 45.4481 3.02878 41.1801 2.94078 36.6041ZM57.0608 33.9641H2.94078C3.20478 29.2121 4.08478 24.9441 5.58078 21.1601C7.07678 17.3761 9.01278 14.1641 11.3888 11.5241C13.8528 8.79611 16.6688 6.72812 19.8368 5.32012C23.0928 3.91212 26.5688 3.20811 30.2648 3.20811C34.6648 3.20811 38.5368 4.04411 41.8808 5.71611C45.2248 7.30011 47.9968 9.50012 50.1968 12.3161C52.4848 15.1321 54.2008 18.4321 55.3448 22.2161C56.4888 25.9121 57.0608 29.8281 57.0608 33.9641Z" fill="white"></path>
    <path d="M113.161 2.15212L89.7968 32.9081L66.9608 2.15212H63.5288L88.2128 34.8881L61.1528 70.0001H64.3208L89.7968 36.8681L115.405 70.0001H118.705L91.5128 34.8881L116.329 2.15212H113.161Z" fill="white"></path>
  </svg>

<svg xmlns="http://www.w3.org/2000/svg" width="119" height="72" fill="none" viewBox="0 0 119 72"><path fill="#fff" d="M2.94 36.604H59.7q.265-6.996-1.451-13.464-1.584-6.468-5.28-11.484-3.564-5.016-9.372-8.052Q37.92.568 30 .568q-5.676 0-11.088 2.376T9.409 9.94q-4.092 4.488-6.6 11.088T.3 36.076Q.3 43.6 2.017 50.2q1.716 6.468 5.28 11.352 3.564 4.752 9.108 7.392Q22.08 71.584 30 71.452q11.616 0 19.536-6.468 7.92-6.6 9.372-18.48h-2.64q-1.716 11.22-8.844 16.896-6.996 5.544-17.688 5.544-7.26 0-12.276-2.508t-8.184-6.864-4.752-10.164q-1.452-5.94-1.584-12.804m54.12-2.64H2.94q.397-7.128 2.64-12.804 2.245-5.676 5.809-9.636 3.696-4.092 8.448-6.204 4.884-2.112 10.428-2.112 6.6 0 11.616 2.508 5.016 2.376 8.316 6.6 3.432 4.224 5.148 9.9 1.716 5.544 1.716 11.748m56.1-31.812L89.797 32.908 66.96 2.152h-3.432l24.684 32.736L61.153 70h3.168l25.476-33.132L115.405 70h3.3L91.513 34.888l24.816-32.736z"/></svg>
